X:1
T:John Come Kiss Me Now
M:4/4
L:1/4
K:F
 C| FF/2-G/2 AG/2-F/2| B B BA/2-G/2| FF/2-G/2 AA/2-B/2| c cc/2-B/2A/2-G/2|\
 FF/2-G/2 AG/2-F/2| B B B d| c3/2 B/2 A G| F F F c| f ff/2-_e/2d/2-c/2|\
 B B B d| g gg/2-f/2=e/2-d/2| c c cd/2-e/2| f ff/2-e/2d/2-c/2| B B B d|\
 cB/2-A/2 G e| f F F||
